actions/16/package-upgrade.svg

<svg xmlns="http://www.w3.org/2000/svg" viewBox="0 0 16 16">
  <defs id="defs3051">
    <style type="text/css" id="current-color-scheme">
      .ColorScheme-Text {
        color:#808080;
      }
      .ColorScheme-PositiveText {
        color:#27ae60;
      }
      </style>
  </defs>
  <g transform="translate(-421.71-531.79)">
 <path style="fill:currentColor;fill-opacity:1;stroke:none" 
     d="m426.71 533.79c-.552 0-1 .448-1 1v2h-2v9h8v-1h-7v-7h10v2h1v-3h-2v-2c0-.552-.448-1-1-1zm0 1h6v2h-6z"
     class="ColorScheme-Text"
     />
  <path d="m432.71 545.79v-3h1v1.5c.604-.455 1-1.181 1-2 0-1.385-1.115-1.5-2.5-1.5h-.5v-1h.5c1.939 0 3.5.561 3.5 2.5 0 .99-.405 1.868-1.063 2.5h1.063v1h-2z"   style="fill:currentColor;fill-opacity:1;stroke:none" 
     class="ColorScheme-PositiveText"
   />
</g>
</svg>

<svg xmlns="http://www.w3.org/2000/svg" version="1.1" viewBox="0 0 16 16">
 <defs>
  <style id="current-color-scheme" type="text/css">
   .ColorScheme-Text { color:#808080; } .ColorScheme-PositiveText { color:#27ae60; }
  </style>
 </defs>
 <g transform="translate(-421.71,-531.79)">
  <path class="ColorScheme-Text" d="M 426.71,533.79 C 426.16,533.79 425.71,534.24 425.71,534.79 V 536.79 H 423.71 V 545.79 H 431.71 V 544.79 H 424.71 V 537.79 H 434.71 V 539.79 H 435.71 V 536.79 H 433.71 V 534.79 C 433.71,534.24 433.26,533.79 432.71,533.79 Z M 426.71,534.79 H 432.71 V 536.79 H 426.71 Z" style="color:#808080;fill:currentColor"/>
  <path class="ColorScheme-PositiveText" d="M 432.71,545.79 V 542.79 H 433.71 V 544.29 C 434.31,543.83 434.71,543.11 434.71,542.29 434.71,540.9 433.59,540.79 432.21,540.79 H 431.71 V 539.79 H 432.21 C 434.15,539.79 435.71,540.35 435.71,542.29 435.71,543.28 435.31,544.16 434.65,544.79 H 435.71 V 545.79 H 433.71 Z" style="color:#27ae60;fill:currentColor"/>
 </g>
</svg>
